X:047 
T:Donegal Rambler (reel), The
T:Donegal Traveller
S:Bobby Gardiner
F:file ID: cre.5/047don_r
B:CRE5.140 (Fánaí Thir Chonaill)
L:1/8
Q:180
M:C
R:reel
K:A
A2EA CAEA|A2cA GdBG|A2EA CABc|dfed cABc|
A2EA CAEA|A2cA GdBG|A2EA CABc|dfed cAA ||
c|e^def ecAc|efec dBBc|eAcA eAcA|efed cAAc|
e^def ecAc|efec dBBc|d2ec dcBA|GBed cABG|A8|]
P:setting in D
K:D
z|d2Ad FdAd|d2fd cgec|d2Ad Fdef|gbag fdef|
d2Ad FdAd|d2fd cgec|d2Ad Fdef|gbag fdd ||
f|a^gab afdf|abaf geef|adfd adfd|abag fddf|
a^gab afdf|abaf geef|g2af gfed|ceag fdec|d8|]

